Papirus-GTK/32x32/apps/gshutdown.svg

<svg height="32" viewBox="0 0 32 32.000001" width="32" xmlns="http://www.w3.org/2000/svg"><ellipse cx="16" cy="16" fill="#4d4d4d" rx="14" ry="13.999994"/><ellipse cx="16" cy="17.000004" opacity=".2" rx="11" ry="10.999996"/><ellipse cx="16" cy="16" fill="#cb4444" rx="11" ry="10.999996"/><path d="m15 8v6h2v-6zm2.039062 2.083984c.119442.01846.239096.03983.357422.06445-.118326-.02462-.237978-.04599-.357422-.06445zm-2.333984.041016c-.10954.02224-.217822.04675-.326172.07422.10835-.02746.216632-.05197.326172-.07422zm3.007813.09375c.121464.03114.241712.0659.361328.103516-.119616-.03762-.239864-.07238-.361328-.103516zm-3.697266.07422c-.102269.03164-.203978.06527-.304687.101562.100709-.0363.202418-.06992.304687-.101562zm4.414063.146484c.06332.02312.12683.04733.189453.07227-.06262-.02494-.126137-.04915-.189453-.07227zm-4.972657.04687c-2.684898 1.046899-4.4538461 3.631897-4.457031 6.513676 0 3.865992 3.134007 7 7 7 3.865993 0 7-3.134008 7-7-.0036-2.798713-1.672911-5.327034-4.246094-6.427734l-.753906 1.847656a5 5 0 0 1 3 4.580078 5 5 0 0 1 -5 5 5 5 0 0 1 -5-5 5 5 0 0 1  3.064453-4.605469l-.607422-1.908203z" opacity=".2"/><path d="m15 7v6h2v-6zm2.039062 2.0839844c.119442.018461.239096.039833.357422.064453-.118326-.02462-.237978-.045992-.357422-.064453zm-2.333984.0410156c-.10954.022245-.217822.046755-.326172.074219.10835-.027464.216632-.051974.326172-.074219zm3.007813.09375c.121464.031141.241712.065896.361328.1035156-.119616-.03762-.239864-.072375-.361328-.1035156zm-3.697266.074219c-.102269.03164-.203978.065265-.304687.1015624.100709-.036297.202418-.069922.304687-.1015624zm4.414063.1464843c.06332.023119.12683.047328.189453.072266-.06262-.024938-.126137-.049148-.189453-.072266zm-4.972657.046875c-2.684898 1.0468947-4.4538461 3.6318927-4.457031 6.5136717 0 3.865992 3.134007 7 7 7 3.865993 0 7-3.134008 7-7-.0036-2.798713-1.672911-5.327034-4.246094-6.4277344l-.753906 1.8476564a5 5 0 0 1 3 4.580078 5 5 0 0 1 -5 5 5 5 0 0 1 -5-5 5 5 0 0 1  3.064453-4.605469l-.607422-1.9082029z" fill="#fff"/><path d="m16 2a14 13.999994 0 0 0 -14 14 14 13.999994 0 0 0  .0214844.585938 14 13.999994 0 0 1  13.9785156-13.585938 14 13.999994 0 0 1  13.978516 13.414062 14 13.999994 0 0 0  .021484-.414062 14 13.999994 0 0 0 -14-14z" fill="#fff" opacity=".1"/><path d="m29.978516 15.414062a14 13.999994 0 0 1 -13.978516 13.585938 14 13.999994 0 0 1 -13.9785156-13.414062 14 13.999994 0 0 0 -.0214844.414062 14 13.999994 0 0 0  14 14 14 13.999994 0 0 0  14-14 14 13.999994 0 0 0 -.021484-.585938z" opacity=".3"/></svg>

<?xml version="1.0" encoding="UTF-8" standalone="no"?>
<svg
   xmlns:dc="http://purl.org/dc/elements/1.1/"
   xmlns:cc="http://creativecommons.org/ns#"
   xmlns:rdf="http://www.w3.org/1999/02/22-rdf-syntax-ns#"
   xmlns:svg="http://www.w3.org/2000/svg"
   xmlns="http://www.w3.org/2000/svg"
   xmlns:sodipodi="http://sodipodi.sourceforge.net/DTD/sodipodi-0.dtd"
   xmlns:inkscape="http://www.inkscape.org/namespaces/inkscape"
   version="1.1"
   id="svg2"
   viewBox="0 0 32 32.000001"
   height="32"
   width="32"
   inkscape:version="0.91 r13725"
   sodipodi:docname="gshutdown.svg">
  <sodipodi:namedview
     pagecolor="#ffffff"
     bordercolor="#666666"
     borderopacity="1"
     objecttolerance="10"
     gridtolerance="10"
     guidetolerance="10"
     inkscape:pageopacity="0"
     inkscape:pageshadow="2"
     inkscape:window-width="1600"
     inkscape:window-height="849"
     id="namedview17"
     showgrid="false"
     inkscape:zoom="15.07"
     inkscape:cx="16"
     inkscape:cy="16"
     inkscape:window-x="0"
     inkscape:window-y="0"
     inkscape:window-maximized="1"
     inkscape:current-layer="svg2" />
  <defs
     id="defs4" />
  <metadata
     id="metadata7">
    <rdf:RDF>
      <cc:Work
         rdf:about="">
        <dc:format>image/svg+xml</dc:format>
        <dc:type
           rdf:resource="http://purl.org/dc/dcmitype/StillImage" />
        <dc:title></dc:title>
      </cc:Work>
    </rdf:RDF>
  </metadata>
  <ellipse
     style="opacity:1;fill:#4d4d4d;fill-opacity:1;stroke:none;stroke-width:10;stroke-miterlimit:4;stroke-dasharray:none;stroke-opacity:1"
     id="path4136"
     cx="16"
     cy="16"
     rx="14"
     ry="13.999994" />
  <ellipse
     ry="10.999996"
     rx="11"
     style="opacity:0.2;fill:#000000;fill-opacity:1;stroke:none;stroke-width:10;stroke-miterlimit:4;stroke-dasharray:none;stroke-opacity:1"
     id="ellipse4182"
     cx="16"
     cy="17.000004" />
  <ellipse
     cy="16"
     cx="16"
     id="circle4138"
     style="opacity:1;fill:#cb4444;fill-opacity:1;stroke:none;stroke-width:10;stroke-miterlimit:4;stroke-dasharray:none;stroke-opacity:1"
     rx="11"
     ry="10.999996" />
  <path
     id="path4180"
     d="m 15,8 0,6 2,0 0,-6 -2,0 z m 2.039062,2.083984 c 0.119442,0.01846 0.239096,0.03983 0.357422,0.06445 -0.118326,-0.02462 -0.237978,-0.04599 -0.357422,-0.06445 z M 14.705078,10.125 c -0.10954,0.02224 -0.217822,0.04675 -0.326172,0.07422 0.10835,-0.02746 0.216632,-0.05197 0.326172,-0.07422 z m 3.007813,0.09375 c 0.121464,0.03114 0.241712,0.0659 0.361328,0.103516 -0.119616,-0.03762 -0.239864,-0.07238 -0.361328,-0.103516 z m -3.697266,0.07422 c -0.102269,0.03164 -0.203978,0.06527 -0.304687,0.101562 0.100709,-0.0363 0.202418,-0.06992 0.304687,-0.101562 z m 4.414063,0.146484 c 0.06332,0.02312 0.12683,0.04733 0.189453,0.07227 -0.06262,-0.02494 -0.126137,-0.04915 -0.189453,-0.07227 z m -4.972657,0.04687 C 10.772133,11.533223 9.0031849,14.118221 9,17 c 0,3.865992 3.134007,7 7,7 3.865993,0 7,-3.134008 7,-7 -0.0036,-2.798713 -1.672911,-5.327034 -4.246094,-6.427734 L 18,12.419922 A 5,5 0 0 1 21,17 a 5,5 0 0 1 -5,5 5,5 0 0 1 -5,-5 5,5 0 0 1 3.064453,-4.605469 l -0.607422,-1.908203 z"
     style="opacity:0.2;fill:#000000;fill-opacity:1;stroke:none;stroke-width:10;stroke-miterlimit:4;stroke-dasharray:none;stroke-opacity:1"
     inkscape:connector-curvature="0" />
  <path
     inkscape:connector-curvature="0"
     style="opacity:1;fill:#ffffff;fill-opacity:1;stroke:none;stroke-width:10;stroke-miterlimit:4;stroke-dasharray:none;stroke-opacity:1"
     d="m 15,7 0,6 2,0 0,-6 -2,0 z m 2.039062,2.0839844 c 0.119442,0.018461 0.239096,0.039833 0.357422,0.064453 -0.118326,-0.02462 -0.237978,-0.045992 -0.357422,-0.064453 z M 14.705078,9.125 C 14.595538,9.147245 14.487256,9.171755 14.378906,9.199219 14.487256,9.171755 14.595538,9.147245 14.705078,9.125 Z m 3.007813,0.09375 c 0.121464,0.031141 0.241712,0.065896 0.361328,0.1035156 -0.119616,-0.03762 -0.239864,-0.072375 -0.361328,-0.1035156 z m -3.697266,0.074219 c -0.102269,0.03164 -0.203978,0.065265 -0.304687,0.1015624 0.100709,-0.036297 0.202418,-0.069922 0.304687,-0.1015624 z m 4.414063,0.1464843 c 0.06332,0.023119 0.12683,0.047328 0.189453,0.072266 -0.06262,-0.024938 -0.126137,-0.049148 -0.189453,-0.072266 z m -4.972657,0.046875 C 10.772133,10.533223 9.0031849,13.118221 9,16 c 0,3.865992 3.134007,7 7,7 3.865993,0 7,-3.134008 7,-7 -0.0036,-2.798713 -1.672911,-5.327034 -4.246094,-6.4277344 L 18,11.419922 A 5,5 0 0 1 21,16 5,5 0 0 1 16,21 5,5 0 0 1 11,16 5,5 0 0 1 14.064453,11.394531 L 13.457031,9.4863281 Z"
     id="circle4142" />
  <path
     inkscape:connector-curvature="0"
     style="opacity:0.1;fill:#ffffff;fill-opacity:1;stroke:none;stroke-width:10;stroke-miterlimit:4;stroke-dasharray:none;stroke-opacity:1"
     d="M 16,2 A 14,13.999994 0 0 0 2,16 14,13.999994 0 0 0 2.0214844,16.585938 14,13.999994 0 0 1 16,3 14,13.999994 0 0 1 29.978516,16.414062 14,13.999994 0 0 0 30,16 14,13.999994 0 0 0 16,2 Z"
     id="ellipse4166" />
  <path
     inkscape:connector-curvature="0"
     style="opacity:0.3;fill:#000000;fill-opacity:1;stroke:none;stroke-width:10;stroke-miterlimit:4;stroke-dasharray:none;stroke-opacity:1"
     d="M 29.978516,15.414062 A 14,13.999994 0 0 1 16,29 14,13.999994 0 0 1 2.0214844,15.585938 14,13.999994 0 0 0 2,16 14,13.999994 0 0 0 16,30 14,13.999994 0 0 0 30,16 14,13.999994 0 0 0 29.978516,15.414062 Z"
     id="ellipse4171" />
</svg>
